X: 42048
T: Waltz From Enviken
R: waltz
M: 3/4
K: Dminor
A,2|"Dm"A,2D2F2|"Dm"A4d2|"Dm"(3ded ^c2"(E7)"d2|"A"e4A2|
"Dm"f2 (3efe d2|"A"^c4 A2|"Gm"B2A2G2|"A"A4A,2|
"Dm"A,2D2F2|"Dm"A4 d2|"E7"(3ded ^c2 d2|"A"e4e2|
"Bb7(Bb)"f2 "(E7)"(3efe d2|"A"^c4 A2|"Gm"F2E2"A"^C2|"Dm"D4:|
|:c2|"F"c2 aa a2|"F(E)"c2 aa a2|"D"a2b2 z a|"Gm"a4 g2|
"C7"B2 gg g2|"Gm"B2 ggg2|"C"g2a2 zg2|"F"g4 f2|
"Dm"A2 ff f2|"Dm(C)"A2 fff2|"Gm(Bb)"f2 g2 f2|"Gm"e4 d2|
"A"^c4 B2|"A"A2^c2e2|"Gm"f2e2"A"^c2|"Dm"d4:|

